dist/img/svg/un.svg

<svg width="80" height="80" viewBox="0 0 80 80"  xmlns="http://www.w3.org/2000/svg">
<path d="M66.3333 64L52 40L66.3333 16L73.3333 40L66.3333 64ZM34.6667 61.6667L16.6667 44H45.3333L59.6667 68L34.6667 61.6667ZM34.6667 18L59.6667 11.6667L45.3333 35.6667H16.3333C16.3333 36 34.6667 18 34.6667 18ZM71.3333 0L38.6667 8.33333L33.6667 16.6667H24L0 40L24 63.3333H33.6667L38.3333 71.6667L71 80L79.6667 48.3333L75 40L80 31.6667L71.3333 0Z" />
</svg>

<svg width="80" height="80" viewBox="0 0 80 80" xmlns="http://www.w3.org/2000/svg"><path d="M66.333 64L52 40l14.333-24 7 24-7 24zm-31.666-2.333L16.667 44h28.666l14.334 24-25-6.333zm0-43.667l25-6.333-14.334 24h-29C16.333 36 34.667 18 34.667 18zM71.333 0L38.667 8.333l-5 8.334H24L0 40l24 23.333h9.667l4.666 8.334L71 80l8.667-31.667L75 40l5-8.333L71.333 0z"/></svg>
